www/assets/icons/military_tech.svg

<svg xmlns="http://www.w3.org/2000/svg" width="24" height="24" viewBox="0 0 24 24" fill='currentColor'><path d="M17 10.43V2H7v8.43c0 .35.18.68.49.86l4.18 2.51-.99 2.34-3.41.29 2.59 2.24L9.07 22 12 20.23 14.93 22l-.78-3.33 2.59-2.24-3.41-.29-.99-2.34 4.18-2.51c.3-.18.48-.5.48-.86m-4 1.8-1 .6-1-.6V3h2z"/></svg>

<svg width="24" height="24" viewBox="0 0 24 24" xmlns="http://www.w3.org/2000/svg" fill='currentColor'><path d="M17 10.43V2H7V10.43C7 10.78 7.18 11.11 7.49 11.29L11.67 13.8L10.68 16.14L7.27 16.43L9.86 18.67L9.07 22L12 20.23L14.93 22L14.15 18.67L16.74 16.43L13.33 16.14L12.34 13.8L16.52 11.29C16.82 11.11 17 10.79 17 10.43ZM13 12.23L12 12.83L11 12.23V3H13V12.23Z"/></svg>
